vendor/shopware/storefront/Resources/app/storefront/dist/assets/icon/default/database.svg

<svg xmlns="http://www.w3.org/2000/svg" width="24" height="24" viewBox="0 0 24 24">
  <path fill="#758CA3" fill-rule="evenodd" d="M24,6.01752797 L24,11.9810308 C24.0002173,11.9930628 24.0002167,12.0050866 24,12.0170962 L24,19 C24,19.3785427 23.7896679,19.7079597 23.4794966,19.8777582 C16.3658598,23.940889 7.63414024,23.940889 0.520503449,19.8777582 C0.210332094,19.7079597 3.19080699e-16,19.3785427 3.19080699e-16,19 L3.19080699e-16,12.0170964 C-0.000216733203,12.0050866 -0.000217256419,11.9930628 -1.8170943e-11,11.9810308 L3.19080699e-16,6.01752797 C-0.000338582048,5.99920179 -0.000173551604,5.98084139 0.000500838299,5.9624679 C-0.0126998937,5.6028191 0.169262734,5.24818534 0.503286486,5.05702123 C7.62578575,0.980765582 16.3742143,0.980765582 23.4967135,5.05702123 C23.8307373,5.24818534 24.0126999,5.6028191 23.9994992,5.9624679 C24.0001736,5.98084139 24.0003386,5.99920179 24,6.01752797 Z M22,7.65357479 C15.6804492,10.6822835 8.31955076,10.6822835 2,7.65357479 L2,11.4166676 C8.22906822,14.8265498 15.7709318,14.8265498 22,11.4166676 L22,7.65357479 Z M22,13.6676075 C15.6913376,16.7429032 8.30866239,16.7429032 2,13.6676075 L2,18.4111312 C8.2438403,21.763098 15.7561597,21.763098 22,18.4111312 L22,13.6676075 Z M3.10287682,5.9624679 C8.74262946,8.5793191 15.2573705,8.5793191 20.8971232,5.9624679 C15.2573705,3.34561669 8.74262946,3.34561669 3.10287682,5.9624679 Z"/>
</svg>

<svg xmlns="http://www.w3.org/2000/svg" width="24" height="24" viewBox="0 0 24 24"><path fill="#758CA3" fill-rule="evenodd" d="M24 6.0175v5.9635a.999.999 0 0 1 0 .0361V19a.9998.9998 0 0 1-.5205.8778c-7.1136 4.063-15.8454 4.063-22.959 0A.9998.9998 0 0 1 0 19v-6.9829a.9991.9991 0 0 1 0-.036V6.0174a.9983.9983 0 0 1 .0005-.055.9999.9999 0 0 1 .5028-.9055c7.1225-4.0762 15.871-4.0762 22.9934 0a.9999.9999 0 0 1 .5028.9055.9983.9983 0 0 1 .0005.055zm-2 1.636c-6.3196 3.0288-13.6804 3.0288-20 0v3.7632c6.229 3.4098 13.771 3.4098 20 0V7.6536zm0 6.0141c-6.3087 3.0753-13.6913 3.0753-20 0v4.7435c6.2438 3.352 13.7562 3.352 20 0v-4.7435zM3.1029 5.9625c5.6397 2.6168 12.1545 2.6168 17.7942 0-5.6397-2.6169-12.1545-2.6169-17.7942 0z"/></svg>
